X: 485
T: A Winston Tune
R: jig
M: 6/8
K: Gmajor
GFG ABd|gba gfe|ded B2G|FGA cBA|
GFG ABd|gba gfe|def dfa|g3 g3:|
B3 B2d|c3 c2e|ded B2G|FGA cBA|
B3 B2d|c3 c2e|def dfa|g3 gdc:|

